images/logo.svg

<svg width="144" height="20" viewBox="0 0 144 20" fill="none" xmlns="http://www.w3.org/2000/svg">
<path d="M8.242 0.592H11.57L13.676 6.702L15.808 0.592H19.11L15.938 8.99L18.278 14.866L23.504 0.539999H27.404L20.02 19H16.926L13.676 11.252L10.452 19H7.358L0 0.539999H3.848L9.1 14.866L11.388 8.99L8.242 0.592ZM34.227 19.26C33.135 19.26 32.147 19.078 31.263 18.714C30.379 18.3327 29.625 17.8213 29.001 17.18C28.377 16.5213 27.8916 15.776 27.545 14.944C27.2156 14.0947 27.051 13.202 27.051 12.266C27.051 10.966 27.337 9.77867 27.909 8.704C28.4983 7.62933 29.3303 6.77133 30.405 6.13C31.497 5.47133 32.7796 5.142 34.253 5.142C35.7436 5.142 37.0176 5.47133 38.075 6.13C39.1323 6.77133 39.9383 7.62933 40.493 8.704C41.065 9.76133 41.351 10.9053 41.351 12.136C41.351 12.344 41.3423 12.5607 41.325 12.786C41.3076 12.994 41.2903 13.1673 41.273 13.306H30.743C30.8123 13.9993 31.0116 14.606 31.341 15.126C31.6876 15.646 32.121 16.0447 32.641 16.322C33.1783 16.582 33.7503 16.712 34.357 16.712C35.0503 16.712 35.7003 16.5473 36.307 16.218C36.931 15.8713 37.3556 15.4207 37.581 14.866L40.571 15.698C40.2416 16.3913 39.765 17.0067 39.141 17.544C38.5343 18.0813 37.815 18.506 36.983 18.818C36.151 19.1127 35.2323 19.26 34.227 19.26ZM30.665 11.096H37.789C37.7196 10.4027 37.5203 9.80467 37.191 9.302C36.879 8.782 36.463 8.38333 35.943 8.106C35.423 7.81133 34.8423 7.664 34.201 7.664C33.577 7.664 33.005 7.81133 32.485 8.106C31.9823 8.38333 31.5663 8.782 31.237 9.302C30.925 9.80467 30.7343 10.4027 30.665 11.096ZM52.0014 19.26C50.9614 19.26 50.0341 19.026 49.2194 18.558C48.4048 18.09 47.7634 17.4487 47.2954 16.634V19H44.2534V0.0199995H47.7374V7.768C48.2228 6.95333 48.8554 6.312 49.6354 5.844C50.4328 5.376 51.3601 5.142 52.4174 5.142C53.3014 5.142 54.1074 5.33267 54.8354 5.714C55.5634 6.078 56.1874 6.58933 56.7074 7.248C57.2448 7.90667 57.6521 8.66067 57.9294 9.51C58.2241 10.3593 58.3714 11.2693 58.3714 12.24C58.3714 13.2107 58.2068 14.1207 57.8774 14.97C57.5654 15.8193 57.1234 16.5733 56.5514 17.232C55.9794 17.8733 55.3034 18.376 54.5234 18.74C53.7608 19.0867 52.9201 19.26 52.0014 19.26ZM51.0394 16.296C51.5941 16.296 52.0968 16.192 52.5474 15.984C53.0154 15.7587 53.4141 15.464 53.7434 15.1C54.0901 14.736 54.3501 14.3113 54.5234 13.826C54.7141 13.3233 54.8094 12.8033 54.8094 12.266C54.8094 11.5207 54.6534 10.836 54.3414 10.212C54.0468 9.57067 53.6308 9.05933 53.0934 8.678C52.5734 8.29667 51.9581 8.106 51.2474 8.106C50.7448 8.106 50.2594 8.22733 49.7914 8.47C49.3408 8.69533 48.9334 9.00733 48.5694 9.406C48.2228 9.80467 47.9454 10.2553 47.7374 10.758V14.008C47.8414 14.3547 48.0061 14.6667 48.2314 14.944C48.4741 15.2213 48.7514 15.464 49.0634 15.672C49.3754 15.8627 49.6961 16.0187 50.0254 16.14C50.3721 16.244 50.7101 16.296 51.0394 16.296Z" fill="#2196F3"/>
<path d="M72.8479 5.376C72.7266 5.25467 72.5013 5.09 72.1719 4.882C71.8599 4.674 71.4699 4.47467 71.0019 4.284C70.5513 4.09333 70.0573 3.92867 69.5199 3.79C68.9826 3.634 68.4366 3.556 67.8819 3.556C66.9113 3.556 66.1746 3.738 65.6719 4.102C65.1866 4.466 64.9439 4.97733 64.9439 5.636C64.9439 6.13867 65.0999 6.53733 65.4119 6.832C65.7239 7.12667 66.1919 7.378 66.8159 7.586C67.4399 7.794 68.2199 8.01933 69.1559 8.262C70.3693 8.55667 71.4179 8.92067 72.3019 9.354C73.2033 9.77 73.8879 10.3247 74.3559 11.018C74.8413 11.694 75.0839 12.5953 75.0839 13.722C75.0839 14.71 74.9019 15.5593 74.5379 16.27C74.1739 16.9633 73.6713 17.5267 73.0299 17.96C72.3886 18.3933 71.6606 18.714 70.8459 18.922C70.0313 19.1127 69.1646 19.208 68.2459 19.208C67.3273 19.208 66.4086 19.1127 65.4899 18.922C64.5713 18.7313 63.6873 18.4627 62.8379 18.116C61.9886 17.752 61.2086 17.3187 60.4979 16.816L62.0839 13.722C62.2399 13.878 62.5173 14.086 62.9159 14.346C63.3146 14.5887 63.7999 14.84 64.3719 15.1C64.9439 15.3427 65.5679 15.5507 66.2439 15.724C66.9199 15.8973 67.6046 15.984 68.2979 15.984C69.2686 15.984 70.0053 15.8193 70.5079 15.49C71.0106 15.1607 71.2619 14.6927 71.2619 14.086C71.2619 13.5313 71.0626 13.098 70.6639 12.786C70.2653 12.474 69.7106 12.2053 68.9999 11.98C68.2893 11.7373 67.4486 11.4773 66.4779 11.2C65.3166 10.8707 64.3459 10.5067 63.5659 10.108C62.7859 9.692 62.2053 9.172 61.8239 8.548C61.4426 7.924 61.2519 7.144 61.2519 6.208C61.2519 4.94267 61.5466 3.88533 62.1359 3.036C62.7426 2.16933 63.5573 1.51933 64.5799 1.086C65.6026 0.635333 66.7379 0.409999 67.9859 0.409999C68.8526 0.409999 69.6673 0.505332 70.4299 0.695999C71.2099 0.886666 71.9379 1.138 72.6139 1.45C73.2899 1.762 73.8966 2.1 74.4339 2.464L72.8479 5.376ZM86.0966 18.298C85.8019 18.4193 85.4466 18.558 85.0306 18.714C84.6146 18.87 84.1639 18.9913 83.6786 19.078C83.2106 19.182 82.7339 19.234 82.2486 19.234C81.6072 19.234 81.0179 19.1213 80.4806 18.896C79.9432 18.6707 79.5099 18.3153 79.1806 17.83C78.8686 17.3273 78.7126 16.6773 78.7126 15.88V8.054H76.9186V5.376H78.7126V0.956H82.1966V5.376H85.0566V8.054H82.1966V14.71C82.2139 15.178 82.3439 15.516 82.5866 15.724C82.8292 15.932 83.1326 16.036 83.4966 16.036C83.8606 16.036 84.2159 15.9753 84.5626 15.854C84.9092 15.7327 85.1866 15.6287 85.3946 15.542L86.0966 18.298ZM88.5611 13.904V5.376H92.0451V13.15C92.0451 14.19 92.2357 14.9787 92.6171 15.516C92.9984 16.036 93.5617 16.296 94.3071 16.296C94.7577 16.296 95.1997 16.2093 95.6331 16.036C96.0837 15.8453 96.4911 15.568 96.8551 15.204C97.2364 14.84 97.5571 14.3807 97.8171 13.826V5.376H101.301V15.1C101.301 15.464 101.362 15.724 101.483 15.88C101.622 16.036 101.838 16.1313 102.133 16.166V19C101.786 19.052 101.492 19.0867 101.249 19.104C101.024 19.1387 100.816 19.156 100.625 19.156C100.001 19.156 99.4897 19.0173 99.0911 18.74C98.7097 18.4453 98.4844 18.0467 98.4151 17.544L98.3371 16.452C97.7304 17.3707 96.9504 18.0727 95.9971 18.558C95.0437 19.026 93.9951 19.26 92.8511 19.26C91.4471 19.26 90.3811 18.8093 89.6531 17.908C88.9251 16.9893 88.5611 15.6547 88.5611 13.904ZM104.711 12.188C104.711 10.8707 104.971 9.68333 105.491 8.626C106.011 7.55133 106.731 6.702 107.649 6.078C108.568 5.454 109.617 5.142 110.795 5.142C111.801 5.142 112.702 5.39333 113.499 5.896C114.314 6.38133 114.947 7.00533 115.397 7.768V0.0199995H118.881V15.1C118.881 15.464 118.942 15.724 119.063 15.88C119.185 16.036 119.393 16.1313 119.687 16.166V19C119.081 19.1213 118.587 19.182 118.205 19.182C117.581 19.182 117.061 19.026 116.645 18.714C116.247 18.402 116.021 17.9947 115.969 17.492L115.917 16.634C115.415 17.4833 114.73 18.1333 113.863 18.584C113.014 19.0347 112.121 19.26 111.185 19.26C110.249 19.26 109.383 19.078 108.585 18.714C107.805 18.35 107.121 17.8473 106.531 17.206C105.959 16.5647 105.509 15.8193 105.179 14.97C104.867 14.1033 104.711 13.176 104.711 12.188ZM115.397 14.008V10.758C115.224 10.2553 114.947 9.80467 114.565 9.406C114.184 9.00733 113.759 8.69533 113.291 8.47C112.823 8.22733 112.355 8.106 111.887 8.106C111.35 8.106 110.865 8.21867 110.431 8.444C109.998 8.66933 109.617 8.97267 109.287 9.354C108.975 9.73533 108.733 10.1773 108.559 10.68C108.403 11.1827 108.325 11.7113 108.325 12.266C108.325 12.8207 108.412 13.3493 108.585 13.852C108.776 14.3373 109.045 14.762 109.391 15.126C109.738 15.49 110.137 15.776 110.587 15.984C111.055 16.192 111.558 16.296 112.095 16.296C112.425 16.296 112.754 16.244 113.083 16.14C113.43 16.0187 113.751 15.8627 114.045 15.672C114.357 15.464 114.626 15.2213 114.851 14.944C115.094 14.6493 115.276 14.3373 115.397 14.008ZM123.081 19V5.376H126.565V19H123.081ZM123.081 3.478V0.0199995H126.565V3.478H123.081ZM136.78 19.26C135.671 19.26 134.674 19.078 133.79 18.714C132.906 18.3327 132.152 17.8127 131.528 17.154C130.921 16.4953 130.453 15.7413 130.124 14.892C129.795 14.0427 129.63 13.15 129.63 12.214C129.63 11.2607 129.795 10.3593 130.124 9.51C130.453 8.66067 130.921 7.90667 131.528 7.248C132.152 6.58933 132.906 6.078 133.79 5.714C134.674 5.33267 135.671 5.142 136.78 5.142C137.889 5.142 138.877 5.33267 139.744 5.714C140.628 6.078 141.382 6.58933 142.006 7.248C142.63 7.90667 143.098 8.66067 143.41 9.51C143.739 10.3593 143.904 11.2607 143.904 12.214C143.904 13.15 143.739 14.0427 143.41 14.892C143.098 15.7413 142.63 16.4953 142.006 17.154C141.399 17.8127 140.654 18.3327 139.77 18.714C138.886 19.078 137.889 19.26 136.78 19.26ZM133.218 12.214C133.218 13.0113 133.374 13.722 133.686 14.346C133.998 14.9527 134.423 15.4293 134.96 15.776C135.497 16.1227 136.104 16.296 136.78 16.296C137.439 16.296 138.037 16.1227 138.574 15.776C139.111 15.412 139.536 14.9267 139.848 14.32C140.177 13.696 140.342 12.9853 140.342 12.188C140.342 11.408 140.177 10.706 139.848 10.082C139.536 9.458 139.111 8.97267 138.574 8.626C138.037 8.27933 137.439 8.106 136.78 8.106C136.104 8.106 135.497 8.288 134.96 8.652C134.423 8.99867 133.998 9.484 133.686 10.108C133.374 10.7147 133.218 11.4167 133.218 12.214Z" fill="black"/>
</svg>

<svg width="144" height="20" fill="none" xmlns="http://www.w3.org/2000/svg"><path d="M8.242.592h3.328l2.106 6.11 2.132-6.11h3.302L15.938 8.99l2.34 5.876L23.504.54h3.9L20.02 19h-3.094l-3.25-7.748L10.452 19H7.358L0 .54h3.848L9.1 14.866l2.288-5.876L8.242.592ZM34.227 19.26c-1.092 0-2.08-.182-2.964-.546a6.96 6.96 0 0 1-2.262-1.534 7.318 7.318 0 0 1-1.456-2.236 7.34 7.34 0 0 1-.494-2.678c0-1.3.286-2.487.858-3.562a6.713 6.713 0 0 1 2.496-2.574c1.092-.659 2.375-.988 3.848-.988 1.49 0 2.765.33 3.822.988a6.395 6.395 0 0 1 2.418 2.574 7.1 7.1 0 0 1 .858 3.432 8.5 8.5 0 0 1-.026.65c-.017.208-.035.381-.052.52h-10.53c.07.693.269 1.3.598 1.82.347.52.78.919 1.3 1.196.537.26 1.11.39 1.716.39.693 0 1.343-.165 1.95-.494.624-.347 1.049-.797 1.274-1.352l2.99.832a5.594 5.594 0 0 1-1.43 1.846 6.839 6.839 0 0 1-2.158 1.274c-.832.295-1.75.442-2.756.442Zm-3.562-8.164h7.124c-.07-.693-.269-1.291-.598-1.794a3.18 3.18 0 0 0-1.248-1.196 3.471 3.471 0 0 0-1.742-.442 3.42 3.42 0 0 0-1.716.442 3.428 3.428 0 0 0-1.248 1.196c-.312.503-.503 1.1-.572 1.794Zm21.336 8.164c-1.04 0-1.967-.234-2.782-.702a5.126 5.126 0 0 1-1.924-1.924V19h-3.042V.02h3.484v7.748a5.457 5.457 0 0 1 1.898-1.924c.798-.468 1.725-.702 2.782-.702.884 0 1.69.19 2.418.572a5.494 5.494 0 0 1 1.872 1.534A6.956 6.956 0 0 1 57.93 9.51c.295.85.442 1.76.442 2.73s-.164 1.88-.494 2.73a7.205 7.205 0 0 1-1.326 2.262 6.207 6.207 0 0 1-2.028 1.508c-.762.347-1.603.52-2.522.52Zm-.962-2.964c.555 0 1.058-.104 1.508-.312.468-.225.867-.52 1.196-.884.347-.364.607-.789.78-1.274.191-.503.286-1.023.286-1.56 0-.745-.156-1.43-.468-2.054a3.764 3.764 0 0 0-1.248-1.534c-.52-.381-1.135-.572-1.846-.572-.502 0-.988.121-1.456.364-.45.225-.858.537-1.222.936a4.9 4.9 0 0 0-.832 1.352v3.25a2.7 2.7 0 0 0 .494.936c.243.277.52.52.832.728.312.19.633.347.962.468a3.52 3.52 0 0 0 1.014.156Z" fill="#2196F3"/><path d="M72.848 5.376c-.121-.121-.347-.286-.676-.494a6.638 6.638 0 0 0-1.17-.598c-.45-.19-.945-.355-1.482-.494a5.846 5.846 0 0 0-1.638-.234c-.97 0-1.707.182-2.21.546-.485.364-.728.875-.728 1.534 0 .503.156.901.468 1.196.312.295.78.546 1.404.754.624.208 1.404.433 2.34.676 1.213.295 2.262.659 3.146 1.092.901.416 1.586.97 2.054 1.664.485.676.728 1.577.728 2.704 0 .988-.182 1.837-.546 2.548a4.57 4.57 0 0 1-1.508 1.69 6.925 6.925 0 0 1-2.184.962c-.815.19-1.681.286-2.6.286s-1.837-.095-2.756-.286a15.15 15.15 0 0 1-2.652-.806 12.7 12.7 0 0 1-2.34-1.3l1.586-3.094c.156.156.433.364.832.624.399.243.884.494 1.456.754.572.243 1.196.45 1.872.624a8.24 8.24 0 0 0 2.054.26c.97 0 1.707-.165 2.21-.494.503-.33.754-.797.754-1.404 0-.555-.2-.988-.598-1.3-.399-.312-.953-.58-1.664-.806a52.762 52.762 0 0 0-2.522-.78c-1.161-.33-2.132-.693-2.912-1.092-.78-.416-1.36-.936-1.742-1.56-.381-.624-.572-1.404-.572-2.34 0-1.265.295-2.323.884-3.172.607-.867 1.421-1.517 2.444-1.95C65.603.636 66.738.41 67.986.41c.867 0 1.681.095 2.444.286.78.19 1.508.442 2.184.754.676.312 1.283.65 1.82 1.014l-1.586 2.912Zm13.249 12.922c-.295.121-.65.26-1.066.416a7.705 7.705 0 0 1-1.352.364 6.572 6.572 0 0 1-1.43.156c-.642 0-1.231-.113-1.768-.338a2.892 2.892 0 0 1-1.3-1.066c-.312-.503-.468-1.153-.468-1.95V8.054h-1.794V5.376h1.794V.956h3.484v4.42h2.86v2.678h-2.86v6.656c.017.468.147.806.39 1.014.242.208.546.312.91.312s.719-.06 1.066-.182c.346-.121.624-.225.832-.312l.702 2.756Zm2.464-4.394V5.376h3.484v7.774c0 1.04.19 1.829.572 2.366.381.52.945.78 1.69.78.45 0 .893-.087 1.326-.26a3.83 3.83 0 0 0 1.222-.832c.381-.364.702-.823.962-1.378v-8.45h3.484V15.1c0 .364.061.624.182.78.139.156.355.251.65.286V19c-.347.052-.641.087-.884.104a4.113 4.113 0 0 1-.624.052c-.624 0-1.135-.139-1.534-.416-.381-.295-.607-.693-.676-1.196l-.078-1.092a6.067 6.067 0 0 1-2.34 2.106c-.953.468-2.002.702-3.146.702-1.404 0-2.47-.45-3.198-1.352-.728-.919-1.092-2.253-1.092-4.004Zm16.15-1.716c0-1.317.26-2.505.78-3.562.52-1.075 1.24-1.924 2.158-2.548.919-.624 1.968-.936 3.146-.936 1.006 0 1.907.251 2.704.754.815.485 1.448 1.11 1.898 1.872V.02h3.484V15.1c0 .364.061.624.182.78.122.156.33.251.624.286V19c-.606.121-1.1.182-1.482.182-.624 0-1.144-.156-1.56-.468a1.72 1.72 0 0 1-.676-1.222l-.052-.858a5.05 5.05 0 0 1-2.054 1.95 5.634 5.634 0 0 1-2.678.676 6.188 6.188 0 0 1-2.6-.546 6.505 6.505 0 0 1-2.054-1.508 7.289 7.289 0 0 1-1.352-2.236 8.152 8.152 0 0 1-.468-2.782Zm10.686 1.82v-3.25a3.656 3.656 0 0 0-.832-1.352 4.392 4.392 0 0 0-1.274-.936 3.026 3.026 0 0 0-1.404-.364c-.537 0-1.022.113-1.456.338a3.86 3.86 0 0 0-1.144.91 4.284 4.284 0 0 0-.728 1.326 5.32 5.32 0 0 0-.234 1.586c0 .555.087 1.083.26 1.586a3.905 3.905 0 0 0 2.002 2.132c.468.208.971.312 1.508.312.33 0 .659-.052.988-.156.347-.121.668-.277.962-.468.312-.208.581-.45.806-.728.243-.295.425-.607.546-.936ZM123.081 19V5.376h3.484V19h-3.484Zm0-15.522V.02h3.484v3.458h-3.484ZM136.78 19.26c-1.109 0-2.106-.182-2.99-.546a6.763 6.763 0 0 1-2.262-1.56 7.08 7.08 0 0 1-1.404-2.262 7.35 7.35 0 0 1-.494-2.678c0-.953.165-1.855.494-2.704a7.079 7.079 0 0 1 1.404-2.262 6.46 6.46 0 0 1 2.262-1.534c.884-.381 1.881-.572 2.99-.572 1.109 0 2.097.19 2.964.572a6.46 6.46 0 0 1 2.262 1.534 6.53 6.53 0 0 1 1.404 2.262c.329.85.494 1.75.494 2.704a7.35 7.35 0 0 1-.494 2.678 6.53 6.53 0 0 1-1.404 2.262 6.49 6.49 0 0 1-2.236 1.56c-.884.364-1.881.546-2.99.546Zm-3.562-7.046c0 .797.156 1.508.468 2.132a3.649 3.649 0 0 0 1.274 1.43c.537.347 1.144.52 1.82.52.659 0 1.257-.173 1.794-.52.537-.364.962-.85 1.274-1.456.329-.624.494-1.335.494-2.132 0-.78-.165-1.482-.494-2.106-.312-.624-.737-1.11-1.274-1.456a3.238 3.238 0 0 0-1.794-.52 3.17 3.17 0 0 0-1.82.546c-.537.347-.962.832-1.274 1.456-.312.607-.468 1.309-.468 2.106Z" fill="#000"/></svg>
